icons/check-circle-24.svg

<svg xmlns="http://www.w3.org/2000/svg" width="24" height="24" viewBox="0 0 24 24">
  <defs/>
  <path d="M17.28,9.28 A0.75 0.75 0 0 0 16.22,8.22 L10.25,14.19 L7.78,11.72 A0.75 0.75 0 0 0 6.72,12.78 L9.72,15.78 A0.75 0.75 0 0 0 10.78,15.78 L17.28,9.28 Z"/>
  <path d="M12,1 C18.075,1 23,5.925 23,12 C23,18.075 18.075,23 12,23 C5.925,23 1,18.075 1,12 C1,5.925 5.925,1 12,1 Z M2.5,12 C2.5,17.247 6.753,21.5 12,21.5 C17.247,21.5 21.5,17.247 21.5,12 C21.5,6.753 17.247,2.5 12,2.5 C6.753,2.5 2.5,6.753 2.5,12 Z"/>
</svg>

<svg xmlns="http://www.w3.org/2000/svg" width="24" height="24" viewBox="0 0 24 24"><path d="M17.28 9.28a.75.75 0 00-1.06-1.06l-5.97 5.97-2.47-2.47a.75.75 0 00-1.06 1.06l3 3a.75.75 0 001.06 0l6.5-6.5z"/><path d="M12 1c6.075 0 11 4.925 11 11s-4.925 11-11 11S1 18.075 1 12 5.925 1 12 1zM2.5 12a9.5 9.5 0 009.5 9.5 9.5 9.5 0 009.5-9.5A9.5 9.5 0 0012 2.5 9.5 9.5 0 002.5 12z"/></svg>
